svg/blobs-icons/no-decorations/palm-tree.svg

<svg xmlns="http://www.w3.org/2000/svg" xmlns:xlink="http://www.w3.org/1999/xlink" preserveAspectRatio="xMidYMid" width="185" height="218" viewBox="0 0 185 218"><defs><style>.cls-3{fill:#53af50}.cls-4{fill:#214620;opacity:.35}.cls-12{fill:#fbb713}</style></defs><g id="group-60svg"><path d="M116.33 191.936c13.644-17.148 10.048-71.4-9.42-108.795.0.0 39.826 4.086 37.793 55.149.0.0 34.723-69.448-23.495-82.724.0.0 18.385-43.92 63.321-26.558.0.0-36.16-40.587-88.002 7.097C91.122 21.176 94.651-.009 94.651-.009 73.243 10.427 69.426 29.77 69.616 42.999 50.726 39.451 17.669 46.843 8.08 81.081c0 0 36.074-25.141 64.494-9.839.0.0-50.431 13.945-52.478 61.945.0.0 21.021-25.843 42.699-32.173C61.037 102.693 59.929 105.035 59.929 107.659 59.929 112.735 64.048 116.848 69.117 116.848 70.96 116.848 72.672 116.297 74.108 115.359 72.915 116.907 72.18 118.816 72.18 120.934 72.18 126.011 76.3 130.13 81.37 130.13 85.79 130.13 89.47 127.001 90.355 122.856 93.031 141.851 93.32 172.114 75.48 196.318 75.48 196.318 108.586 201.67 116.33 191.936z" id="path-1" class="cls-3" fill-rule="evenodd"/><path d="M63.39 67.7C64.223 67.428 64.688 67.299 64.688 67.299 46.538 57.526 25.282 64.247 12.278 70.382c-1.659 3.243-3.099 6.774-4.198 10.699.0.0 28.875-20.102 55.31-13.381z" id="path-2" class="cls-4" fill-rule="evenodd"/><path d="M81.37 130.13C82.129 130.13 82.855 130.007 83.56 129.833 83.323 125.915 82.937 122.234 82.468 118.913 81.606 122.95 78.086 126 73.82 126.157 75.478 128.553 78.239 130.13 81.37 130.13z" id="path-3" class="cls-4" fill-rule="evenodd"/><path d="M85.804 5.572C85.383 13.067 85.552 23.63 88.641 32.162 90.568 30.389 92.467 28.776 94.348 27.241 92.32 13.985 94.651-.009 94.651-.009 91.265 1.641 88.364 3.535 85.804 5.572z" id="path-4" class="cls-4" fill-rule="evenodd"/><path d="M52.042 103.714C52.042 101.091 53.15 98.75 54.908 97.07 42.682 100.641 30.668 110.417 22.512 118.264c-1.316 4.569-2.186 9.518-2.416 14.923.0.0 14.672-17.991 32.133-27.621C52.106 104.968 52.042 104.349 52.042 103.714z" id="path-5" class="cls-4" fill-rule="evenodd"/><path d="M166.024 16.722C172.861 20.844 176.641 25.065 176.641 25.065c-44.934-17.362-63.319 26.557-63.319 26.557C116.433 52.332 119.225 53.231 121.824 54.243c3.5-7.157 22.434-40.794 62.705-25.235.0.0-6.72299999999999-7.523-18.505-12.286z" id="path-6" class="cls-4" fill-rule="evenodd"/><path d="M66.222 111.415C64.872 112.297 63.266 112.796 61.548 112.857c.75 1.087 1.739 1.98 2.874 2.66C64.675 113.985 65.313 112.595 66.222 111.415z" id="path-7" class="cls-4" fill-rule="evenodd"/><path d="M129.76 58.205c22.292 14.101 18.587 42.074 13.244 59.915C144.343 123.862 145.012 130.526 144.703 138.29c0 0 31.039-62.153-14.943-80.085z" id="path-8" class="cls-4" fill-rule="evenodd"/><path d="M115.501 85.426c-8.581-5.405-16.477-6.229-16.477-6.229 19.467 37.395 23.063 91.648 9.419 108.797C103.431 194.295 87.827 194.269 77.419 193.47 76.782 194.423 76.169 195.382 75.48 196.318c0 0 33.106 5.35199999999998 40.85-4.381 13.644-17.149 10.048-71.401-9.42-108.796C106.91 83.141 110.52 83.521 115.501 85.426z" id="path-9" class="cls-4" fill-rule="evenodd"/><path d="M53.443 188.692C21.94 191.014.013 196.143.013 202.112.013 210.258 40.882 216.87 91.294 216.87s91.28-6.612 91.28-14.758C182.568 195.101 152.443 189.269 112.054 187.735" id="path-10" class="cls-12" fill-rule="evenodd"/></g></svg>

<svg xmlns="http://www.w3.org/2000/svg" xmlns:xlink="http://www.w3.org/1999/xlink" preserveAspectRatio="xMidYMid" width="185" height="218" viewBox="0 0 185 218">
  <defs>
    <style>

      .cls-3 {
        fill: #53af50;
      }

      .cls-4 {
        fill: #214620;
        opacity: 0.35;
      }

      .cls-12 {
        fill: #fbb713;
      }
    </style>
  </defs>
  <g id="group-60svg">
    <path d="M116.330,191.936 C129.974,174.788 126.378,120.536 106.910,83.141 C106.910,83.141 146.736,87.227 144.703,138.290 C144.703,138.290 179.426,68.842 121.208,55.566 C121.208,55.566 139.593,11.646 184.529,29.008 C184.529,29.008 148.369,-11.579 96.527,36.105 C91.122,21.176 94.651,-0.009 94.651,-0.009 C73.243,10.427 69.426,29.770 69.616,42.999 C50.726,39.451 17.669,46.843 8.080,81.081 C8.080,81.081 44.154,55.940 72.574,71.242 C72.574,71.242 22.143,85.187 20.096,133.187 C20.096,133.187 41.117,107.344 62.795,101.014 C61.037,102.693 59.929,105.035 59.929,107.659 C59.929,112.735 64.048,116.848 69.117,116.848 C70.960,116.848 72.672,116.297 74.108,115.359 C72.915,116.907 72.180,118.816 72.180,120.934 C72.180,126.011 76.300,130.130 81.370,130.130 C85.790,130.130 89.470,127.001 90.355,122.856 C93.031,141.851 93.320,172.114 75.480,196.318 C75.480,196.318 108.586,201.670 116.330,191.936 Z" id="path-1" class="cls-3" fill-rule="evenodd"/>
    <path d="M63.390,67.700 C64.223,67.428 64.688,67.299 64.688,67.299 C46.538,57.526 25.282,64.247 12.278,70.382 C10.619,73.625 9.179,77.156 8.080,81.081 C8.080,81.081 36.955,60.979 63.390,67.700 Z" id="path-2" class="cls-4" fill-rule="evenodd"/>
    <path d="M81.370,130.130 C82.129,130.130 82.855,130.007 83.560,129.833 C83.323,125.915 82.937,122.234 82.468,118.913 C81.606,122.950 78.086,126.000 73.820,126.157 C75.478,128.553 78.239,130.130 81.370,130.130 Z" id="path-3" class="cls-4" fill-rule="evenodd"/>
    <path d="M85.804,5.572 C85.383,13.067 85.552,23.630 88.641,32.162 C90.568,30.389 92.467,28.776 94.348,27.241 C92.320,13.985 94.651,-0.009 94.651,-0.009 C91.265,1.641 88.364,3.535 85.804,5.572 Z" id="path-4" class="cls-4" fill-rule="evenodd"/>
    <path d="M52.042,103.714 C52.042,101.091 53.150,98.750 54.908,97.070 C42.682,100.641 30.668,110.417 22.512,118.264 C21.196,122.833 20.326,127.782 20.096,133.187 C20.096,133.187 34.768,115.196 52.229,105.566 C52.106,104.968 52.042,104.349 52.042,103.714 Z" id="path-5" class="cls-4" fill-rule="evenodd"/>
    <path d="M166.024,16.722 C172.861,20.844 176.641,25.065 176.641,25.065 C131.707,7.703 113.322,51.622 113.322,51.622 C116.433,52.332 119.225,53.231 121.824,54.243 C125.324,47.086 144.258,13.449 184.529,29.008 C184.529,29.008 177.806,21.485 166.024,16.722 Z" id="path-6" class="cls-4" fill-rule="evenodd"/>
    <path d="M66.222,111.415 C64.872,112.297 63.266,112.796 61.548,112.857 C62.298,113.944 63.287,114.837 64.422,115.517 C64.675,113.985 65.313,112.595 66.222,111.415 Z" id="path-7" class="cls-4" fill-rule="evenodd"/>
    <path d="M129.760,58.205 C152.052,72.306 148.347,100.279 143.004,118.120 C144.343,123.862 145.012,130.526 144.703,138.290 C144.703,138.290 175.742,76.137 129.760,58.205 Z" id="path-8" class="cls-4" fill-rule="evenodd"/>
    <path d="M115.501,85.426 C106.920,80.021 99.024,79.197 99.024,79.197 C118.491,116.592 122.087,170.845 108.443,187.994 C103.431,194.295 87.827,194.269 77.419,193.470 C76.782,194.423 76.169,195.382 75.480,196.318 C75.480,196.318 108.586,201.670 116.330,191.937 C129.974,174.788 126.378,120.536 106.910,83.141 C106.910,83.141 110.520,83.521 115.501,85.426 Z" id="path-9" class="cls-4" fill-rule="evenodd"/>
    <path d="M53.443,188.692 C21.940,191.014 0.013,196.143 0.013,202.112 C0.013,210.258 40.882,216.870 91.294,216.870 C141.706,216.870 182.574,210.258 182.574,202.112 C182.568,195.101 152.443,189.269 112.054,187.735 C112.054,187.735 112.054,187.735 112.054,187.735 " id="path-10" class="cls-12" fill-rule="evenodd"/>
  </g>
</svg>
